images/addsectionimage/placeholder-with-question-mark-ltr.svg

<svg width="60" height="61" viewBox="0 0 78 75" fill="none" xmlns="http://www.w3.org/2000/svg">
<g opacity="0.8">
<path fill-rule="evenodd" clip-rule="evenodd" d="M41.5 29.5001H10.375C8.22627 29.5001 6.48438 31.1791 6.48438 33.2501V55.7501C6.48438 57.8212 8.22627 59.5001 10.375 59.5001H41.5C43.6487 59.5001 45.3906 57.8212 45.3906 55.7501V33.2501C45.3906 31.1791 43.6487 29.5001 41.5 29.5001ZM10.0448 53.8755L18.0011 44.0317L23.6815 50.613L31.6183 40.7505L41.8312 53.8755H10.0448Z" fill="#AC6600"/>
<rect x="3.89062" y="5" width="70.0312" height="6.25" rx="2" fill="#AC6600"/>
<rect x="3.89062" y="16.25" width="70.0312" height="6.25" rx="2" fill="#AC6600"/>
<rect x="3.89062" y="66.25" width="70.0312" height="6.25" rx="2" fill="#AC6600"/>
<path fill-rule="evenodd" clip-rule="evenodd" d="M59.6633 57.5068C59.5414 55.5559 61.0821 53.8783 63.1065 53.7578H63.5539C65.5576 53.6181 67.2994 55.07 67.4445 57.0007C67.464 57.1689 67.464 57.3387 67.4445 57.5068C67.5894 59.4376 66.0828 61.116 64.0791 61.2559C63.9046 61.2747 63.7284 61.2747 63.5539 61.2559C61.5398 61.3845 59.7984 59.9162 59.6633 57.9755C59.6429 57.8199 59.6429 57.6624 59.6633 57.5068ZM63.6707 27.5142C69.3899 27.5142 73.2806 31.0571 73.2806 36.0059C73.3567 39.1479 71.6489 42.08 68.8258 43.654C66.0635 45.3786 65.2853 46.522 65.2853 48.734V50.0087H60.4026V48.4903C60.0383 45.5479 61.5824 42.6911 64.2932 41.2921C66.8999 39.605 67.7753 38.424 67.7753 36.2121C67.7961 35.1616 67.3803 34.1466 66.6203 33.3932C65.8604 32.6398 64.8194 32.2104 63.7291 32.2005H63.3984C62.2115 32.1601 61.0567 32.5759 60.1883 33.3565C59.3199 34.1371 58.8091 35.2183 58.7685 36.362V36.6807H53.8274C53.63 31.8173 57.5543 27.7171 62.6008 27.5142C62.9572 27.4953 63.3144 27.4953 63.6707 27.5142Z" fill="#AC6600"/>
</g>
</svg>

<svg xmlns="http://www.w3.org/2000/svg" width="60" height="61" fill="none" viewBox="0 0 78 75">
	<g fill="#AC6600" opacity=".8">
		<path fill-rule="evenodd" d="M41.5 29.5H10.375c-2.149 0-3.89 1.68-3.89 3.75v22.5c0 2.071 1.741 3.75 3.89 3.75H41.5c2.149 0 3.89-1.679 3.89-3.75v-22.5c0-2.07-1.741-3.75-3.89-3.75ZM10.045 53.876 18 44.032l5.68 6.581 7.937-9.862L41.83 53.876H10.045Z" clip-rule="evenodd"/>
		<rect width="70.031" height="6.25" x="3.891" y="5" rx="2"/>
		<rect width="70.031" height="6.25" x="3.891" y="16.25" rx="2"/>
		<rect width="70.031" height="6.25" x="3.891" y="66.25" rx="2"/>
		<path fill-rule="evenodd" d="M59.663 57.507c-.122-1.951 1.42-3.629 3.444-3.75h.447c2.004-.139 3.745 1.313 3.89 3.244.02.168.02.338 0 .506.145 1.93-1.361 3.609-3.365 3.749-.174.019-.35.019-.525 0-2.014.129-3.756-1.34-3.89-3.28a1.802 1.802 0 0 1 0-.47Zm4.008-29.993c5.719 0 9.61 3.543 9.61 8.492.076 3.142-1.632 6.074-4.455 7.648-2.762 1.725-3.54 2.868-3.54 5.08v1.275h-4.883V48.49c-.365-2.942 1.18-5.799 3.89-7.198 2.607-1.687 3.482-2.868 3.482-5.08a3.86 3.86 0 0 0-1.155-2.819 4.161 4.161 0 0 0-2.89-1.193h-.332a4.573 4.573 0 0 0-3.21 1.156 4.245 4.245 0 0 0-1.42 3.006v.319h-4.94c-.198-4.864 3.726-8.964 8.773-9.167a10.05 10.05 0 0 1 1.07 0Z" clip-rule="evenodd"/>
	</g>
</svg>
